svg/white/btt.svg

<?xml version="1.0" encoding="UTF-8"?>
<svg width="32px" height="32px" viewBox="0 0 32 32" version="1.1" xmlns="http://www.w3.org/2000/svg" xmlns:xlink="http://www.w3.org/1999/xlink">
    <!-- Generator: Sketch 53 (72520) - https://sketchapp.com -->
    <title>svg/white/btt</title>
    <desc>Created with Sketch.</desc>
    <g id="white/btt" stroke="none" stroke-width="1" fill="none" fill-rule="evenodd">
        <path d="M16,32 C7.163444,32 0,24.836556 0,16 C0,7.163444 7.163444,0 16,0 C24.836556,0 32,7.163444 32,16 C32,24.836556 24.836556,32 16,32 Z M27.7428571,13.5387755 C27.5836735,12.7673469 27.3510204,12.0204082 27.044898,11.2979592 C26.7510204,10.5877551 26.3714286,9.91428571 25.9428571,9.26530612 C25.5142857,8.62857143 25.0244898,8.04081633 24.4857143,7.50204082 C23.9469388,6.96326531 23.3591837,6.47346939 22.722449,6.04489796 C22.0857143,5.61632653 21.4,5.24897959 20.6897959,4.94285714 C19.9673469,4.63673469 19.2204082,4.40408163 18.4489796,4.24489796 C17.6653061,4.08571429 16.8571429,4 16.0489796,4 C15.2408163,4 14.4326531,4.08571429 13.6489796,4.24489796 C12.877551,4.40408163 12.1306122,4.63673469 11.4081633,4.94285714 C10.6979592,5.23673469 10.0244898,5.61632653 9.3755102,6.04489796 C8.73877551,6.47346939 8.15102041,6.96326531 7.6122449,7.50204082 C7.07346939,8.04081633 6.58367347,8.62857143 6.15510204,9.26530612 C5.72653061,9.90204082 5.35918367,10.5877551 5.05306122,11.2979592 C4.74693878,12.0204082 4.51428571,12.7673469 4.35510204,13.5387755 C4.19591837,14.322449 4.11020408,15.1306122 4.11020408,15.9387755 C4.11020408,16.7469388 4.19591837,17.555102 4.35510204,18.3387755 C4.51428571,19.1102041 4.74693878,19.8571429 5.05306122,20.5795918 C5.34693878,21.2897959 5.72653061,21.9632653 6.15510204,22.6122449 C6.58367347,23.2489796 7.07346939,23.8367347 7.6122449,24.3755102 C8.15102041,24.9142857 8.73877551,25.4040816 9.3755102,25.8326531 C10.0122449,26.2612245 10.6979592,26.6285714 11.4081633,26.9346939 C12.1306122,27.2408163 12.877551,27.4734694 13.6489796,27.6326531 C14.4326531,27.7918367 15.2408163,27.877551 16.0489796,27.877551 C16.8571429,27.877551 17.6653061,27.7918367 18.4489796,27.6326531 C19.2204082,27.4734694 19.9673469,27.2408163 20.6897959,26.9346939 C21.4,26.6408163 22.0734694,26.2612245 22.722449,25.8326531 C23.3591837,25.4040816 23.9469388,24.9142857 24.4857143,24.3755102 C25.0244898,23.8367347 25.5142857,23.2489796 25.9428571,22.6122449 C26.3714286,21.9755102 26.7387755,21.2897959 27.044898,20.5795918 C27.3510204,19.8571429 27.5836735,19.1102041 27.7428571,18.3387755 C27.9020408,17.555102 27.9877551,16.7469388 27.9877551,15.9387755 C27.9877551,15.1306122 27.9020408,14.322449 27.7428571,13.5387755 Z M16.0612245,26.3836735 C10.2938776,26.3836735 5.62857143,21.7061224 5.62857143,15.9510204 C5.62857143,10.1959184 10.3061224,5.51836735 16.0612245,5.51836735 C21.8163265,5.51836735 26.4938776,10.1959184 26.4938776,15.9510204 C26.4938776,21.7061224 21.8163265,26.3836735 16.0612245,26.3836735 Z M16.244898,25.477551 C16.2816327,25.477551 16.3061224,25.477551 16.3428571,25.477551 C16.355102,25.477551 16.3795918,25.477551 16.3918367,25.477551 C16.4285714,25.477551 16.4653061,25.477551 16.4897959,25.477551 C16.5020408,25.477551 16.5142857,25.477551 16.5265306,25.477551 C16.5755102,25.477551 16.6244898,25.477551 16.6734694,25.4653061 C16.6734694,25.4653061 16.6734694,25.4653061 16.6857143,25.4653061 C16.7346939,25.4653061 16.7714286,25.4653061 16.8204082,25.4530612 C16.8326531,25.4530612 16.844898,25.4530612 16.8571429,25.4530612 C16.8938776,25.4530612 16.9306122,25.4530612 16.9673469,25.4408163 C16.9795918,25.4408163 16.9918367,25.4408163 17.0040816,25.4408163 C17.0408163,25.4408163 17.077551,25.4285714 17.1265306,25.4285714 C17.1387755,25.4285714 17.1387755,25.4285714 17.1510204,25.4285714 C17.2,25.4285714 17.2489796,25.4163265 17.2979592,25.4163265 C17.3469388,25.4163265 17.3836735,25.4040816 17.4326531,25.3918367 C17.444898,25.3918367 17.4571429,25.3918367 17.4571429,25.3918367 C17.4938776,25.3918367 17.5306122,25.3795918 17.5673469,25.3795918 C17.5795918,25.3795918 17.5795918,25.3795918 17.5918367,25.3795918 C17.6408163,25.3673469 17.677551,25.3673469 17.7265306,25.355102 C17.8244898,25.3428571 17.922449,25.3183673 18.0081633,25.2938776 C18.0204082,25.2938776 18.0204082,25.2938776 18.0326531,25.2938776 C18.0693878,25.2816327 18.1183673,25.2816327 18.155102,25.2693878 C18.155102,25.2693878 18.1673469,25.2693878 18.1673469,25.2693878 C18.2653061,25.244898 18.3510204,25.2204082 18.4489796,25.1959184 C17.2734694,25.2326531 16.3183673,25.0734694 15.7183673,24.9387755 C14.3714286,24.644898 13.0857143,24.1183673 11.9959184,23.2122449 C10.1836735,21.6938776 9.25306122,19.5142857 9.27755102,17.3469388 C9.28979592,15.7306122 9.84081633,14.1142857 10.955102,12.7918367 C12.3510204,11.1387755 14.3346939,10.2693878 16.3673469,10.2204082 C16.4653061,10.2204082 16.5510204,10.2204082 16.6489796,10.2204082 L16.6489796,8.59183673 C16.5387755,8.59183673 16.4408163,8.59183673 16.3306122,8.59183673 C15.7061224,8.60408163 15.0938776,8.67755102 14.4938776,8.8122449 C13.8816327,8.94693878 13.2938776,9.15510204 12.7306122,9.4122449 C12.155102,9.68163265 11.6163265,10.0122449 11.1142857,10.3918367 C10.6,10.7836735 10.122449,11.2367347 9.70612245,11.7387755 C9.31428571,12.2040816 8.97142857,12.7061224 8.68979592,13.244898 C8.40816327,13.7591837 8.1877551,14.3102041 8.01632653,14.8734694 C7.85714286,15.4244898 7.73469388,16 7.68571429,16.5755102 C7.67346939,16.7591837 7.66122449,16.9306122 7.64897959,17.1142857 C7.64897959,17.1877551 7.64897959,17.2489796 7.64897959,17.322449 C7.64897959,17.3591837 7.64897959,17.3959184 7.64897959,17.4326531 C7.66122449,18.0571429 7.73469388,18.6693878 7.86938776,19.2693878 C8.00408163,19.8816327 8.2122449,20.4693878 8.46938776,21.0326531 C8.7755102,21.7061224 9.32653061,22.6979592 10.1469388,23.444898 C11.7632653,24.7183673 13.8081633,25.477551 16.0244898,25.477551 C16.0734694,25.477551 16.122449,25.477551 16.1714286,25.477551 C16.2081633,25.477551 16.2326531,25.477551 16.244898,25.477551 Z M18.9142857,23.9102041 C18.3510204,23.8979592 17.6530612,23.8122449 17.1142857,23.7142857 C14.5918367,23.2612245 12.4244898,21.7183673 11.6285714,19.3918367 C10.6612245,16.5632653 12.1428571,13.5020408 14.9591837,12.5714286 C15.5102041,12.3877551 16.0612245,12.3020408 16.6244898,12.3020408 C17.3469388,12.3020408 18.0693878,12.4489796 18.7306122,12.7183673 L19.4163265,11.2612245 C19.2081633,11.1755102 19,11.1020408 18.7918367,11.0285714 C18.0938776,10.8081633 17.3591837,10.6979592 16.6244898,10.6979592 C15.8897959,10.6979592 15.155102,10.8204082 14.4571429,11.0530612 C13.5632653,11.3469388 12.7428571,11.8244898 12.044898,12.4489796 C11.7142857,12.7428571 11.3959184,13.0857143 11.1265306,13.4408163 C10.8571429,13.7959184 10.6244898,14.1755102 10.4285714,14.5795918 C10.2326531,14.9836735 10.0734694,15.4 9.96326531,15.8285714 C9.85306122,16.2571429 9.76734694,16.7102041 9.74285714,17.1632653 C9.68163265,18.0938776 9.80408163,19.0244898 10.1102041,19.9061224 C10.4163265,20.8 10.9061224,21.6204082 11.5795918,22.3428571 C12.1795918,22.9918367 12.877551,23.4816327 13.722449,23.9346939 C14.6040816,24.4 15.6938776,24.644898 16.8326531,24.8040816 C17.5673469,24.9020408 18.5469388,24.9265306 19.122449,24.9265306 C19.6244898,24.7428571 19.8326531,24.6571429 20.1020408,24.5469388 C20.3346939,24.4367347 20.5673469,24.3265306 20.8,24.1918367 C21.0326531,24.0571429 21.0693878,24.0326531 21.4612245,23.7755102 C21.4979592,23.7510204 21.5346939,23.7265306 21.5591837,23.7020408 C20.2122449,23.9346939 19.8693878,23.922449 18.9142857,23.9102041 Z M21.9265306,22.0857143 C21.5469388,22.1102041 21.0081633,22.1469388 20.3959184,22.1469388 C19.3061224,22.1469388 17.9714286,22.0489796 16.8326531,21.6693878 C15.0693878,21.0816327 13.4040816,19.5755102 13.4040816,17.7142857 C13.4040816,15.8530612 14.9102041,14.3591837 16.7591837,14.3591837 C18.0204082,14.3591837 19.1102041,15.0571429 19.6857143,16.0734694 L21.1428571,15.3510204 C20.9102041,14.922449 20.6285714,14.5306122 20.2734694,14.1877551 C19.8204082,13.7346939 19.2816327,13.3673469 18.6938776,13.122449 C18.0816327,12.8653061 17.4326531,12.7306122 16.7591837,12.7306122 C16.0857143,12.7306122 15.4367347,12.8653061 14.8244898,13.122449 C14.2367347,13.3673469 13.6979592,13.7346939 13.244898,14.1877551 C12.7918367,14.6408163 12.4244898,15.1795918 12.1795918,15.7673469 C11.922449,16.3795918 11.7877551,17.0285714 11.7877551,17.7020408 C11.7877551,18.3755102 11.9346939,19.0489796 12.2163265,19.6857143 C12.4734694,20.2489796 12.8285714,20.7755102 13.2816327,21.2653061 C14.077551,22.122449 15.1673469,22.8081633 16.3306122,23.2 C17.444898,23.5673469 19.0857143,23.7020408 20.677551,23.5918367 C21.1183673,23.555102 21.4489796,23.5183673 22.0122449,23.3959184 C22.5510204,22.9673469 23.0530612,22.477551 23.4816327,21.9387755 C23.1020408,21.9755102 22.4040816,22.0489796 21.9265306,22.0857143 Z" id="Combined-Shape" fill="#FFFFFF" fill-rule="nonzero"></path>
    </g>
</svg>

<svg width="32" height="32" viewBox="0 0 32 32" xmlns="http://www.w3.org/2000/svg"><path d="M16 32C7.163 32 0 24.837 0 16S7.163 0 16 0s16 7.163 16 16-7.163 16-16 16zm11.743-18.461a11.886 11.886 0 0 0-.698-2.241 12.102 12.102 0 0 0-1.102-2.033 11.864 11.864 0 0 0-1.457-1.763 11.864 11.864 0 0 0-1.764-1.457 12.518 12.518 0 0 0-2.032-1.102 11.886 11.886 0 0 0-9.282 0 11.864 11.864 0 0 0-3.796 2.56 11.864 11.864 0 0 0-1.457 1.762 12.518 12.518 0 0 0-1.102 2.033 11.886 11.886 0 0 0 0 9.282c.294.71.674 1.383 1.102 2.032a11.88 11.88 0 0 0 1.457 1.764 11.864 11.864 0 0 0 1.764 1.457c.636.428 1.322.796 2.032 1.102a11.886 11.886 0 0 0 9.282 0c.71-.294 1.383-.674 2.032-1.102a11.864 11.864 0 0 0 1.764-1.457 11.864 11.864 0 0 0 1.457-1.764c.428-.636.796-1.322 1.102-2.032a11.886 11.886 0 0 0 .698-7.041zM16.06 26.384c-5.767 0-10.432-4.678-10.432-10.433S10.306 5.518 16.06 5.518c5.755 0 10.433 4.678 10.433 10.433S21.816 26.384 16.06 26.384zm.184-.906h.283c.049 0 .097 0 .146-.013h.013c.049 0 .085 0 .134-.012h.037c.037 0 .074 0 .11-.012h.037c.037 0 .074-.012.123-.012h.024c.049 0 .098-.013.147-.013.049 0 .086-.012.135-.024h.024c.037 0 .074-.012.11-.012h.025c.049-.013.086-.013.135-.025.097-.012.195-.037.281-.061h.025c.036-.012.085-.012.122-.025h.012c.098-.024.184-.049.282-.073a10.948 10.948 0 0 1-2.73-.257c-1.348-.294-2.633-.82-3.723-1.727a7.544 7.544 0 0 1-2.718-5.865 7.127 7.127 0 0 1 1.677-4.555c1.396-1.653 3.38-2.523 5.412-2.572h.282V8.592h-.318a9.186 9.186 0 0 0-1.837.22 8.83 8.83 0 0 0-1.763.6c-.576.27-1.115.6-1.617.98a8.618 8.618 0 0 0-1.408 1.347 8.333 8.333 0 0 0-1.016 1.506 8.61 8.61 0 0 0-.674 1.628 8.9 8.9 0 0 0-.33 1.703l-.037.538v.318c.012.625.086 1.237.22 1.837.135.613.343 1.2.6 1.764.307.673.858 1.665 1.678 2.412a9.47 9.47 0 0 0 5.877 2.033h.221zm2.67-1.568a12.454 12.454 0 0 1-1.8-.196c-2.523-.453-4.69-1.996-5.486-4.322-.968-2.829.514-5.89 3.33-6.82a5.21 5.21 0 0 1 1.665-.27c.723 0 1.445.147 2.107.416l.685-1.457a13.136 13.136 0 0 0-.624-.232 7.213 7.213 0 0 0-2.168-.331 6.87 6.87 0 0 0-2.167.355 6.81 6.81 0 0 0-2.412 1.396 7.02 7.02 0 0 0-.918.992 6.66 6.66 0 0 0-.698 1.139 6.904 6.904 0 0 0-.686 2.584c-.061.93.061 1.86.367 2.742a6.77 6.77 0 0 0 1.47 2.437c.6.649 1.298 1.139 2.142 1.592.882.465 1.972.71 3.11.87.735.097 1.715.122 2.29.122.502-.184.71-.27.98-.38.233-.11.465-.22.698-.355.233-.135.27-.16.661-.416a.68.68 0 0 0 .098-.074c-1.347.233-1.69.22-2.645.208zm3.012-1.824c-.38.024-.919.06-1.531.06-1.09 0-2.425-.097-3.563-.477-1.764-.587-3.429-2.093-3.429-3.955a3.352 3.352 0 0 1 3.355-3.355c1.261 0 2.351.698 2.927 1.714l1.457-.722a4.734 4.734 0 0 0-.87-1.163 4.966 4.966 0 0 0-7.029 0 4.966 4.966 0 0 0-1.457 3.514 4.9 4.9 0 0 0 .43 1.984c.256.563.612 1.09 1.065 1.58.796.856 1.885 1.542 3.049 1.934 1.114.367 2.755.502 4.347.392.44-.037.771-.074 1.334-.196a9.188 9.188 0 0 0 1.47-1.457c-.38.037-1.078.11-1.555.147z" fill="#FFF"/></svg>
